X:220
M:C
L:1/8
K:G
d>c B<A G2G:|
e|~g>dg>a b/a/g/f/ e>f|~g>dg>b ~g>dg>b|~g>dg>a b/a/g/f/ e>f|
g>e d<B G2 Ge/f/|~g>dg>a b/a/g/f/ e>f|~g>dg>b d>eg>a|
b/a/g/f/ g>B A/A/A g>e|d>cB>A G2G||

of the Athole Collection, 1884, by James Stewart-Robertson.

